Suru++-Ubuntu/apps/symbolic/nicotine-plus-symbolic.svg

<svg width="16" height="16" version="1.1" xmlns="http://www.w3.org/2000/svg">
 <path d="m2.5 15.443949c0.074683 0.0038 0.1403339 0.01512 0.2173228 0.0189 0.4201134 0.02646 0.9267099 0.02646 1.4179918 0.03402l0.023433-5.2232c0.00869-1.9596471-0.1018583-4.7197609 0.3485102-6.0314837 0.7511584-1.5195968 2.3429329-2.3375244 4.038633-2.0750362 1.6881252 0.2611654 2.9697292 1.5907654 3.1823502 3.3011905 0.0469 0.3771969 0.05866 2.6350113 0.02835 5.4138714l-0.05046 4.617789c0.543016-0.0076 1.088111-0.01134 1.546213-0.0378 0.07646-0.0038 0.141619-0.01134 0.215849-0.0189l-0.03477-5.09234c-0.038667-5.62114-0.035908-5.573707-0.540501-6.6749101-0.498645-1.0878236-1.445658-2.0947653-2.453628-2.60897-1.1591127-0.59134492-2.8263076-0.73927562-4.0562226-0.35981102-1.5594595 0.48090712-2.7702311 1.5556535-3.44849 3.0610393-0.4232088 0.9392881-0.4335647 1.1035086-0.4339767 6.6143998z" style="fill:#808080"/>
</svg>

<svg xmlns="http://www.w3.org/2000/svg" width="16" height="16" version="1.1">
 <path style="fill:#808080" d="m 2.5,15.443949 c 0.074683,0.0038 0.1403339,0.01512 0.2173228,0.0189 0.4201134,0.02646 0.9267099,0.02646 1.4179918,0.03402 l 0.023433,-5.2232 C 4.1674376,8.3140219 4.0568893,5.5539081 4.5072578,4.2421853 5.2584162,2.7225885 6.8501907,1.9046609 8.5458908,2.1671491 10.234016,2.4283145 11.51562,3.7579145 11.728241,5.4683396 c 0.0469,0.3771969 0.05866,2.6350113 0.02835,5.4138714 L 11.706131,15.5 c 0.543016,-0.0076 1.088111,-0.01134 1.546213,-0.0378 0.07646,-0.0038 0.141619,-0.01134 0.215849,-0.0189 l -0.03477,-5.09234 C 13.394756,4.72982 13.397515,4.777253 12.892922,3.6760499 12.394277,2.5882263 11.447264,1.5812846 10.439294,1.0670799 9.2801813,0.47573498 7.6129864,0.32780428 6.3830714,0.70726888 4.8236119,1.188176 3.6128403,2.2629224 2.9345814,3.7683082 2.5113726,4.7075963 2.5010167,4.8718168 2.5006047,10.382708 Z"/>
</svg>
